!!!OTL: Z NACHT WENN DER MOND SCHEINT
!!!ARE: Europa, Mitteleuropa, Deutschland, France, Elsass
!!!SCT: E0885
!!!YEM: Copyright 1995, estate of Helmut Schaffrath.
**kern
*ICvox
*Ivox
*M2/4
*k[f#]
*G:
=1
{4g
8a
8b
=2
4a
4d}
=3
{8g
8a
8b
8g
=4
4a
4a}
=5
{8.cc
16cc
8cc
8a
=6
8b
8b
4b}
=7
{8a
8a
8f#
8f#
=8
4g
4g}
=9
{8dd
8b
4b
=10
8cc
8a
4a}
=11
{8g
8b
8dd
16dd
16dd
=12
4b
4b}
=13
{8dd
8b
8b
8b
=14
8cc
16a
16a
4a}
=15
{8g
16b
16b
8dd
8dd
=16
4g
4g}
==
!!!AGN: Hochzeits -, Ehestands - Lied, Scherz - Lied, Bettelhochzeit
!!!ONB: ESAC (Essen Associative Code) Database: ERK2
!!!AMT: simple duple
!!!AIN: vox
!!!EED: Helmut Schaffrath
!!!EEV: 1.0
*-
